X:1
T:Title
T:主禱文
T:              (請教導我們禱告)
T:曲、詞：馬啟邦    編曲：潘盈慧                                                                                                                                                                曲、詞：馬啟邦    編曲：潘盈慧 Music score transposed from:  One Circle  Limited (同心圓敬拜福音平台) Transposed by:  Susanna Chan                                                                                                                                        
C:Composer
L:1/8
Q:1/4=58
M:4/4
K:E
V:1 treble nm="Piano" snm="Pno."
V:1
 z4 z3"^Intro" b |"E" g2- ga/g/"B/D#" fg/b/- bd |"C#m7" e4"Bm" fg/b/- be |"A" c'bed"E/G#" e3 b | %4
w: ||||
"F#m7" a2 g2"B" f3 B ||"E""^VERSE A" G2- GA"B/D#" FG/B/- BG |"C#m7" E4"Bm" FG/B/- BB, | %7
w: * * * 天|父 * 祢 名 是 多 * 麼|美 榮 耀 遍 * 全|
"A" C3 D/F/"E/G#" EB,/B,/- B,>E |"F#m7" AGFG"B" F3 B |"E" G2- GA"B/D#" FG/B/- BG | %10
w: 地 在 禱 告 良 辰 * 靜|觀 * 祢 的 美 恬|靜 * 我 沉 默 主 * 座|
"C#m" E4"Bm" FG/B/- BE |"A" C3 D/F/"E/G#" E>B,- B,E/E/ |[M:2/4]"A/B" AG FG |[M:4/4]"E" E4- E3 E || %14
w: 前 毋 用 多 * 片|言 在 禱 告 前 * 祢 已|清 楚 我 需|要 * 求|
"A""^PRE-CHORUS" AA/B/- Bc"E/G#" B/FG/- GF/D/ | E>C EA"E" G3 E |"A" AA/G/- GG"E/G#" B/BE/- EC | %17
w: 賜 我 信 * 心 的 眼 睛 * 風 暴|裡 仍 舊 恬 靜 全|獻 我 順 * 服 的 心 靈 * 由|
"A" E2 CC"A/B" E3 B |"B" B6 (3DB,G |:"E""^CHORUS" G3 A/G/"B" FF/B/- B>D | %20
w: 祢 全 權 來 帶|領 願 人 都|尊 祢 * 名 為 聖 * 願|
"C#m" EFGE"B" DC/B,/- B,E/D/ |"A" CE/F/- F/EB,/"E/G#" GG/G/- G>F |"F#m7" FFGB"B" F2 (3EB,G | %23
w: 祢 * 的 國 降 * 臨 * 也 *|願 祢 旨 * 意 行 在 地 上 * 如|同 行 在 天 上 我 們 當|
"E" GF/G/- GE"B/D#" B/GF/- F>B, |"C#m7" E2 FG"E/B" DC/B,/- B,2 |"A" EECc"E/G#" B3 B,/B,/ | %26
w: 天 所 需 * 要 的 食 物 * 求|祢 賜 給 我 * 們 *|免 我 們 的 債 如 同|
"F#m7" AG/F/- F2"A/B" AA/F/- FG |1"E""^VERSE B" E6 z B |"E" G2- GA/G/"B" FG/B/- BG | %29
w: 我 * 們 * 免 去 人 * 的|債 今|日 * 我 * 求 問 主 * 的|
"C#m7" E4"Bm" FG/B/- BG |"A" C3 B,"E/G#" G/FE/- EE/E/ |[M:2/4]"F#m" AG Fc | %32
w: 國 求 問 主 * 的|義 王 的 旨 意 * 如 陽|光 遍 地 彰|
[M:4/4]"B" B6"B7" (3DB,G :|2"E""_BRIDGE" E8 ||"A" z c/B/ BF"E/G#" (3GBB B2 | %35
w: 顯 願 人 都|債|不 叫 我 們 遇 見 試 探|
"F#" z A (3AFA"E" FG/E/- E2 |"A" z F (3EDE"E/G#" BF/G/- GF/G/ |"F#" G>A- A2"F#/A" G>A- AB | %38
w: 救 我 們 脫 離 凶 惡 *|因 國 度 權 柄 榮 耀 * 全 *|屬 祢 * 直 到 * 永|
"B" B4"C" =c2 (3E=CA ||[K:F]"F""^VERSE C" A3 B/A/"C/E" GG/c/- cE |"D7" FGAF"A" ED/C/- CF/E/ | %41
w: 遠 * 願 人 都|尊 你 * 名 為 聖 * 願|你 * 的 國 降 * 臨 * 也 *|
"Bb" DF/G/- G/FC/"F" AA/A/- A>G |"Cm7" GGAc"C" G2 (3FCA |"F" AG/A/- AF"C/E" c/AG/- G>C | %44
w: 願 你 旨 * 意 行 在 地 上 * 如|同 行 在 天 上 我 們 當|天 所 需 * 要 的 食 物 * 求|
"D" F2 GA"A" ED/C/- C2 |"Bb" FFDd"F/A" c3 C/C/ |"Gm7" BA/G/- G2"C7" BB/G/- GA |"F" F6 z F || %48
w: 祢 賜 給 我 * 們 *|免 我 們 的 債 如 同|我 * 們 * 免 去 人 * 的|債 我|
"Bb" D>A dc"F" Ac A>A |"Bb" G2 BA"C7" G2 FF |"F" c8- |"F" c8 |] %52
w: 們 在 天 * 上 的 父 願|人 都 尊 祢 名 為|聖||

